assets/icon/holotape.svg

<?xml version="1.0" encoding="UTF-8"?>
<svg xmlns="http://www.w3.org/2000/svg" xmlns:xlink="http://www.w3.org/1999/xlink" width="128pt" height="128pt" viewBox="0 0 128 128" version="1.1">
<g id="surface1">
<path style="fill:#f5cb5b;fill-opacity:0.29803923;fill-rule:evenodd;stroke:none;" d="M 31.399854 9.599609 L 9.849561 9.599609 C 7.850049 9.599609 6.850293 10.600586 6.850293 12.600098 L 6.850293 26.25 C 6.850293 28.249512 7.850049 29.250488 9.849561 29.250488 L 31.399854 29.250488 C 33.400586 29.250488 34.400342 28.249512 34.400342 26.25 L 34.400342 12.600098 C 34.400342 10.600586 33.400586 9.599609 31.399854 9.599609 " transform="matrix(3.2,0,0,3.2,-0.96,0)"/>
<path style="stroke-width:4;stroke:#f5cb5b;stroke-opacity:0.29803923;fill-rule:evenodd;fill:#ffffcb;" d="M 91.679688 34.078125 C 87.414062 34.078125 83.734375 35.574219 80.640625 38.558594 C 77.652344 41.652344 76.160156 45.332031 76.160156 49.601562 C 76.160156 53.867188 77.652344 57.492188 80.640625 60.480469 C 83.734375 63.574219 87.414062 65.121094 91.679688 65.121094 C 95.945312 65.121094 99.574219 63.574219 102.558594 60.480469 C 105.652344 57.492188 107.199219 53.867188 107.199219 49.601562 C 107.199219 45.332031 105.652344 41.652344 102.558594 38.558594 C 99.574219 35.574219 95.945312 34.078125 91.679688 34.078125 M 75.199219 68.640625 L 76.160156 67.039062 L 75.199219 65.441406 L 72.800781 64.800781 L 37.441406 64.800781 L 35.039062 65.441406 L 34.078125 67.039062 L 35.039062 68.640625 L 37.441406 69.28125 L 72.800781 69.28125 L 75.199219 68.640625 M 72.800781 75.359375 L 37.441406 75.359375 L 35.039062 76 L 34.078125 77.601562 L 35.039062 79.199219 L 37.441406 79.839844 L 72.800781 79.839844 L 75.199219 79.199219 L 76.160156 77.601562 L 75.199219 76 L 72.800781 75.359375 M 99.519531 30.71875 C 105.921875 30.71875 109.121094 33.921875 109.121094 40.320312 L 109.121094 84 C 109.121094 90.398438 105.921875 93.601562 99.519531 93.601562 L 30.558594 93.601562 C 24.160156 93.601562 20.960938 90.398438 20.960938 84 L 20.960938 40.320312 C 20.960938 33.921875 24.160156 30.71875 30.558594 30.71875 L 99.519531 30.71875 M 25.921875 50.71875 C 25.921875 52.320312 26.507812 53.707031 27.679688 54.878906 C 28.851562 56.054688 30.238281 56.640625 31.839844 56.640625 C 33.441406 56.640625 34.828125 56.054688 36 54.878906 C 37.171875 53.707031 37.761719 52.320312 37.761719 50.71875 C 37.761719 49.121094 37.171875 47.734375 36 46.558594 C 34.828125 45.386719 33.441406 44.800781 31.839844 44.800781 C 30.238281 44.800781 28.851562 45.386719 27.679688 46.558594 C 26.507812 47.734375 25.921875 49.121094 25.921875 50.71875 M 34.078125 87.199219 L 35.039062 88.800781 L 37.441406 89.441406 L 72.800781 89.441406 L 75.199219 88.800781 L 76.160156 87.199219 L 75.199219 85.601562 L 72.800781 84.960938 L 37.441406 84.960938 L 35.039062 85.601562 L 34.078125 87.199219 M 103.359375 90.078125 C 104.535156 88.90625 105.121094 87.519531 105.121094 85.921875 C 105.121094 84.320312 104.535156 82.933594 103.359375 81.761719 C 102.1875 80.585938 100.800781 80 99.199219 80 C 97.601562 80 96.214844 80.585938 95.039062 81.761719 C 93.867188 82.933594 93.28125 84.320312 93.28125 85.921875 C 93.28125 87.519531 93.867188 88.90625 95.039062 90.078125 C 96.214844 91.253906 97.601562 91.839844 99.199219 91.839844 C 100.800781 91.839844 102.1875 91.253906 103.359375 90.078125 "/>

</g>
</svg>

<svg xmlns="http://www.w3.org/2000/svg" width="128pt" height="128pt" viewBox="0 0 128 128"><g fill-rule="evenodd"><path d="M99.52 30.719H30.559c-6.399 0-9.598 3.203-9.598 9.601V84c0 6.398 3.2 9.602 9.598 9.602h68.96c6.403 0 9.602-3.204 9.602-9.602V40.32c0-6.398-3.2-9.601-9.601-9.601" fill="#f5cb5b" fill-opacity=".298"/><path d="M91.68 34.078c-4.266 0-7.946 1.496-11.04 4.48-2.988 3.094-4.48 6.774-4.48 11.044 0 4.265 1.492 7.89 4.48 10.878 3.094 3.094 6.774 4.641 11.04 4.641 4.265 0 7.894-1.547 10.879-4.64 3.093-2.989 4.64-6.614 4.64-10.88 0-4.269-1.547-7.949-4.64-11.042-2.985-2.985-6.614-4.48-10.88-4.48M75.2 68.64l.961-1.602-.96-1.598-2.4-.64H37.442l-2.402.64-.96 1.598.96 1.602 2.402.64h35.36l2.398-.64m-2.398 6.718H37.44L35.04 76l-.96 1.602.96 1.597 2.402.64h35.36l2.398-.64.961-1.597L75.2 76l-2.4-.64m26.72-44.641c6.402 0 9.601 3.203 9.601 9.601V84c0 6.398-3.2 9.602-9.601 9.602H30.559c-6.399 0-9.598-3.204-9.598-9.602V40.32c0-6.398 3.2-9.601 9.598-9.601h68.96m-73.597 20c0 1.601.586 2.988 1.758 4.16 1.172 1.176 2.558 1.762 4.16 1.762 1.601 0 2.988-.586 4.16-1.762 1.172-1.172 1.762-2.559 1.762-4.16 0-1.598-.59-2.985-1.762-4.16-1.172-1.172-2.559-1.758-4.16-1.758-1.602 0-2.988.586-4.16 1.758-1.172 1.175-1.758 2.562-1.758 4.16m8.156 36.48l.961 1.602 2.402.64h35.36l2.398-.64.961-1.602-.96-1.597-2.4-.641H37.442l-2.402.64-.96 1.598m69.28 2.88c1.176-1.173 1.762-2.56 1.762-4.157 0-1.602-.586-2.988-1.762-4.16C102.188 80.586 100.801 80 99.2 80c-1.597 0-2.984.586-4.16 1.762-1.172 1.172-1.758 2.558-1.758 4.16 0 1.598.586 2.984 1.758 4.156 1.176 1.176 2.563 1.762 4.16 1.762 1.602 0 2.989-.586 4.16-1.762" stroke-width="4" stroke="#f5cb5b" stroke-opacity=".298" fill="#ffffcb"/></g></svg>
